Yaru++/apps/scalable/masterizzatore.svg

<svg fill="none" height="256" viewBox="0 0 256 256" width="256" xmlns="http://www.w3.org/2000/svg" xmlns:xlink="http://www.w3.org/1999/xlink"><linearGradient id="a" gradientUnits="userSpaceOnUse" x1="79.752" x2="175.752" y1="12.248" y2="236.248"><stop offset="0" stop-color="#cdcdcd"/><stop offset="1" stop-color="#d9d9d9"/></linearGradient><g fill="#000"><path d="m127.752 240.248c61.856 0 112-50.144 112-112 0-61.8559-50.144-112-112-112-61.8559 0-112 50.1441-112 112 0 61.856 50.1441 112 112 112z" opacity=".3"/><path d="m127.752 238.248c61.856 0 112-50.144 112-112 0-61.8559-50.144-112-112-112-61.8559 0-112 50.1441-112 112 0 61.856 50.1441 112 112 112z" opacity=".1"/><path d="m127.752 238.248c62.96 0 114-51.04 114-114 0-62.9606-51.04-114.0002-114-114.0002-62.9605 0-114 51.0396-114 114.0002 0 62.96 51.0395 114 114 114z" opacity=".1"/></g><path d="m127.752 236.248c61.856 0 112-50.144 112-112 0-61.8561-50.144-112.0002-112-112.0002-61.8559 0-112 50.1441-112 112.0002 0 61.856 50.1441 112 112 112z" fill="url(#a)"/><path d="m127.752 12.248c-14.708 0-29.2721 2.897-42.8605 8.5255-13.5885 5.6285-25.9353 13.8784-36.3354 24.2786-10.4002 10.4001-18.6501 22.7469-24.2786 36.3354-5.6285 13.5884-8.5255 28.1525-8.5255 42.8605h112zm0 112v112c29.704 0 58.192-11.8 79.196-32.804s32.804-49.492 32.804-79.196z" fill="#fff" opacity=".2"/><path d="m206.948 45.0521c-10.4-10.4002-22.747-18.6501-36.335-24.2786-13.589-5.6285-28.153-8.5255-42.861-8.5255s-29.2721 2.897-42.8606 8.5255c-13.5884 5.6285-25.9352 13.8784-36.3354 24.2786l79.196 79.1959zm-79.196 79.1959-79.196 79.196c10.4002 10.4 22.747 18.65 36.3354 24.279 13.5885 5.628 28.1526 8.525 42.8606 8.525s29.272-2.897 42.861-8.525c13.588-5.629 25.935-13.879 36.335-24.279z" fill="#000" opacity=".02"/><path d="m97.2006 16.4971c-.6801.223-1.3581.4525-2.0337.6885 1.7928-.5343 3.5987-1.0236 5.4161-1.4674-1.1315.2422-2.2591.5018-3.3824.7789zm8.8194-2.0316c1.831-.3513 3.671-.6568 5.517-.9162-1.846.2594-3.686.5649-5.517.9162zm-16.1387 4.5084c-1.7621.6228-3.5084 1.2896-5.2371 1.9998 1.7287-.7102 3.475-1.377 5.2371-1.9998zm27.2197-6.1308c1.85-.1664 3.703-.2869 5.559-.3612-1.856.0743-3.709.1948-5.559.3612zm-37.5314 10.4346c-1.6989.7989-3.3774 1.6404-5.034 2.5237 1.6566-.8833 3.3351-1.7248 5.034-2.5237zm48.7064-10.9438c1.863.0201 3.725.0867 5.585.1998-1.86-.1131-3.722-.1797-5.585-.1998zm-58.5359 16.2548c-1.6126.9649-3.2007 1.9703-4.7628 3.0151 1.5621-1.0448 3.1502-2.0502 4.7628-3.0151zm69.6879-15.646c1.857.2058 3.709.4581 5.553.7565-1.844-.2984-3.696-.5507-5.553-.7565zm-78.9488 21.9167c-1.5085 1.122-2.9885 2.2818-4.4385 3.4783 1.45-1.1965 2.93-2.3563 4.4385-3.4783zm90.0228-20.1927c1.814.3878 3.618.8206 5.411 1.298-1.793-.4774-3.597-.9102-5.411-1.298zm-100.2248 28.7922c-.4265.3912-.8499.7858-1.2702 1.1836.4203-.3978.8437-.7924 1.2702-1.1836zm-1.6759 1.6239c-6.9301 6.9092-12.9249 14.6969-17.831 23.1641l96.9937 55.9991zm79.1627 79.1632 79.163 79.164c6.93-6.909 12.925-14.697 17.831-23.164zm33.56-106.7629c1.77.5677 3.526 1.1794 5.266 1.8345-1.74-.6551-3.496-1.2668-5.266-1.8345zm10.485 3.8815c1.714.7457 3.408 1.5342 5.082 2.3648-1.674-.8306-3.368-1.6191-5.082-2.3648zm10.051 4.9116c.616.3578 1.229.7215 1.838 1.091l.066-.1149c-.632-.3314-1.266-.6568-1.904-.9761zm-110.0289 194.8498-.0663.114c.6313.332 1.2658.657 1.9034.977-.6158-.358-1.2282-.722-1.8371-1.091zm6.8062 3.637c1.6741.831 3.3686 1.619 5.0821 2.365-1.7135-.746-3.408-1.534-5.0821-2.365zm10.3015 4.412c1.7397.655 3.4954 1.267 5.2655 1.835-1.7701-.568-3.5258-1.18-5.2655-1.835zm117.5832-25.325c-.421.398-.844.793-1.271 1.184.427-.391.85-.786 1.271-1.184zm-106.9063 28.678c1.7923.477 3.5973.91 5.4113 1.298-1.814-.388-3.619-.821-5.4113-1.298zm99.8723-22.373c-1.45 1.197-2.93 2.356-4.439 3.478 1.509-1.122 2.989-2.281 4.439-3.478zm-88.941 24.639c1.845.298 3.696.55 5.553.756-1.857-.206-3.708-.458-5.553-.756zm80.004-17.905c-1.562 1.045-3.15 2.05-4.762 3.015 1.612-.965 3.2-1.97 4.762-3.015zm-68.884 19.07c1.86.113 3.723.18 5.586.2-1.863-.02-3.726-.087-5.586-.2zm59.326-13.268c-1.657.884-3.335 1.725-5.034 2.524 1.699-.799 3.377-1.64 5.034-2.524zm-48.124 13.32c1.856-.074 3.709-.195 5.559-.361-1.85.166-3.703.287-5.559.361zm38.015-8.492c-1.728.71-3.475 1.377-5.237 2 1.762-.623 3.509-1.29 5.237-2zm-26.893 7.424c1.847-.259 3.686-.564 5.517-.916-1.831.352-3.67.657-5.517.916zm16.371-3.636c-1.793.534-3.599 1.024-5.416 1.468 1.817-.444 3.623-.934 5.416-1.468z" fill="#faf8f6"/><path d="m127.752 84.2478c22.091 0 40 17.9082 40 40.0002 0 22.091-17.909 40-40 40s-40-17.909-40-40c0-22.092 17.909-40.0002 40-40.0002z" fill="#aea795"/><path d="m127.752 160.248c19.882 0 36-16.118 36-36s-16.118-36.0002-36-36.0002-36 16.1182-36 36.0002 16.118 36 36 36z" fill="#faf8f6"/><path d="m127.752 138.248c7.732 0 14-6.268 14-14s-6.268-14-14-14-14 6.268-14 14 6.268 14 14 14z" fill="#4d4d4d"/><path d="m127.752 12.248c-29.7042 0-58.1919 11.8-79.1959 32.804-21.0041 21.0041-32.8041 49.4918-32.8041 79.196.0116.39.0253.78.041 1.17.2191-29.5531 12.11-57.8218 33.0816-78.6455 20.9715-20.8237 49.3235-32.5145 78.8774-32.5245 29.496.0092 57.797 11.6532 78.759 32.4038 20.962 20.7505 32.892 48.9324 33.2 78.4262.015-.277.028-.553.041-.83 0-29.7042-11.8-58.1919-32.804-79.196-21.004-21.004-49.492-32.804-79.196-32.804z" fill="#fff" opacity=".3"/><path d="m127.752 236.248c-14.708 0-29.2721-2.897-42.8605-8.525-13.5885-5.629-25.9353-13.879-36.3354-24.279-10.4002-10.4-18.6501-22.747-24.2786-36.335-5.6285-13.589-8.5255-28.153-8.5255-42.861.0116-.39.0253-.78.041-1.17.2191 29.553 12.11 57.822 33.0816 78.646 20.9715 20.823 49.3235 32.514 78.8774 32.524 29.496-.009 57.797-11.653 78.759-32.404 20.962-20.75 32.892-48.932 33.2-78.426.015.277.028.553.041.83 0 14.708-2.897 29.272-8.525 42.861-5.629 13.588-13.879 25.935-24.279 36.335s-22.747 18.65-36.335 24.279c-13.589 5.628-28.153 8.525-42.861 8.525z" fill="#000" opacity=".2"/><path d="m69.072 135.059c35.346 0 64-28.654 64-64 0-35.3463-28.654-64.00004-64-64.00004-35.3462 0-64.00001 28.65374-64.00001 64.00004 0 35.346 28.65381 64 64.00001 64z" fill="#000" opacity=".2"/><path d="m69.072 133.059c35.346 0 64-28.654 64-64 0-35.3462-28.654-64.00001-64-64.00001-35.3462 0-64.00001 28.65381-64.00001 64.00001 0 35.346 28.65381 64 64.00001 64z" fill="#fb7c38"/><path d="m78.27 31.0043c-24.54 10-39.27 33.44-39.27 50 0 16.374 12.884 29.6597 28.887 29.9707-7.9968-.16-14.439-6.787-14.439-14.9707 0-8.2843 7.3631-20 19.635-25 0 17.5 13.176 20.03 9.8174 29.9997-1.9043 5.654-6.5493 9.944-14.602 9.99.048.001.1015.006.1529.006 16.266 0 25.623-8.632 29.452-20 6.7167-19.941-19.635-25-19.635-60z" fill="#fff"/></svg>

<svg width="256" height="256" viewBox="0 0 256 256" fill="none" xmlns="http://www.w3.org/2000/svg">
<path opacity="0.3" d="M127.752 240.248C189.608 240.248 239.752 190.104 239.752 128.248C239.752 66.3921 189.608 16.248 127.752 16.248C65.8961 16.248 15.752 66.3921 15.752 128.248C15.752 190.104 65.8961 240.248 127.752 240.248Z" fill="black"/>
<path opacity="0.1" d="M127.752 238.248C189.608 238.248 239.752 188.104 239.752 126.248C239.752 64.3921 189.608 14.248 127.752 14.248C65.8961 14.248 15.752 64.3921 15.752 126.248C15.752 188.104 65.8961 238.248 127.752 238.248Z" fill="black"/>
<path opacity="0.1" d="M127.752 238.248C190.712 238.248 241.752 187.208 241.752 124.248C241.752 61.2874 190.712 10.2478 127.752 10.2478C64.7915 10.2478 13.752 61.2874 13.752 124.248C13.752 187.208 64.7915 238.248 127.752 238.248Z" fill="black"/>
<path d="M127.752 236.248C189.608 236.248 239.752 186.104 239.752 124.248C239.752 62.3919 189.608 12.2478 127.752 12.2478C65.8961 12.2478 15.752 62.3919 15.752 124.248C15.752 186.104 65.8961 236.248 127.752 236.248Z" fill="url(#paint0_linear)"/>
<path opacity="0.2" d="M127.752 12.248C113.044 12.248 98.4799 15.145 84.8915 20.7735C71.303 26.402 58.9562 34.6519 48.5561 45.0521C38.1559 55.4522 29.906 67.799 24.2775 81.3875C18.649 94.9759 15.752 109.54 15.752 124.248H127.752V12.248ZM127.752 124.248V236.248C157.456 236.248 185.944 224.448 206.948 203.444C227.952 182.44 239.752 153.952 239.752 124.248H127.752Z" fill="white"/>
<path opacity="0.02" d="M206.948 45.0521C196.548 34.6519 184.201 26.402 170.613 20.7735C157.024 15.145 142.46 12.248 127.752 12.248C113.044 12.248 98.4799 15.145 84.8914 20.7735C71.303 26.402 58.9562 34.6519 48.556 45.0521L127.752 124.248L206.948 45.0521ZM127.752 124.248L48.556 203.444C58.9562 213.844 71.303 222.094 84.8914 227.723C98.4799 233.351 113.044 236.248 127.752 236.248C142.46 236.248 157.024 233.351 170.613 227.723C184.201 222.094 196.548 213.844 206.948 203.444L127.752 124.248Z" fill="black"/>
<path d="M97.2006 16.4971C96.5205 16.7201 95.8425 16.9496 95.1669 17.1856C96.9597 16.6513 98.7656 16.162 100.583 15.7182C99.4515 15.9604 98.3239 16.22 97.2006 16.4971V16.4971ZM106.02 14.4655C107.851 14.1142 109.691 13.8087 111.537 13.5493C109.691 13.8087 107.851 14.1142 106.02 14.4655V14.4655ZM89.8813 18.9739C88.1192 19.5967 86.3729 20.2635 84.6442 20.9737C86.3729 20.2635 88.1192 19.5967 89.8813 18.9739V18.9739ZM117.101 12.8431C118.951 12.6767 120.804 12.5562 122.66 12.4819C120.804 12.5562 118.951 12.6767 117.101 12.8431V12.8431ZM79.5696 23.2777C77.8707 24.0766 76.1922 24.9181 74.5356 25.8014C76.1922 24.9181 77.8707 24.0766 79.5696 23.2777V23.2777ZM128.276 12.3339C130.139 12.354 132.001 12.4206 133.861 12.5337C132.001 12.4206 130.139 12.354 128.276 12.3339V12.3339ZM69.7401 28.5887C68.1275 29.5536 66.5394 30.559 64.9773 31.6038C66.5394 30.559 68.1275 29.5536 69.7401 28.5887V28.5887ZM139.428 12.9427C141.285 13.1485 143.137 13.4008 144.981 13.6992C143.137 13.4008 141.285 13.1485 139.428 12.9427V12.9427ZM60.4792 34.8594C58.9707 35.9814 57.4907 37.1412 56.0407 38.3377C57.4907 37.1412 58.9707 35.9814 60.4792 34.8594V34.8594ZM150.502 14.6667C152.316 15.0545 154.12 15.4873 155.913 15.9647C154.12 15.4873 152.316 15.0545 150.502 14.6667V14.6667ZM50.2772 43.4589C49.8507 43.8501 49.4273 44.2447 49.007 44.6425C49.4273 44.2447 49.8507 43.8501 50.2772 43.4589V43.4589ZM48.6013 45.0828C41.6712 51.992 35.6764 59.7797 30.7703 68.2469L127.764 124.246L48.6013 45.0828ZM127.764 124.246L206.927 203.41C213.857 196.501 219.852 188.713 224.758 180.246L127.764 124.246ZM161.324 17.4831C163.094 18.0508 164.85 18.6625 166.59 19.3176C164.85 18.6625 163.094 18.0508 161.324 17.4831ZM171.809 21.3646C173.523 22.1103 175.217 22.8988 176.891 23.7294C175.217 22.8988 173.523 22.1103 171.809 21.3646V21.3646ZM181.86 26.2762C182.476 26.634 183.089 26.9977 183.698 27.3672L183.764 27.2523C183.132 26.9209 182.498 26.5955 181.86 26.2762L181.86 26.2762ZM71.8311 221.126L71.7648 221.24C72.3961 221.572 73.0306 221.897 73.6682 222.217C73.0524 221.859 72.44 221.495 71.8311 221.126H71.8311ZM78.6373 224.763C80.3114 225.594 82.0059 226.382 83.7194 227.128C82.0059 226.382 80.3114 225.594 78.6373 224.763V224.763ZM88.9388 229.175C90.6785 229.83 92.4342 230.442 94.2043 231.01C92.4342 230.442 90.6785 229.83 88.9388 229.175V229.175ZM206.522 203.85C206.101 204.248 205.678 204.643 205.251 205.034C205.678 204.643 206.101 204.248 206.522 203.85V203.85ZM99.6157 232.528C101.408 233.005 103.213 233.438 105.027 233.826C103.213 233.438 101.408 233.005 99.6157 232.528V232.528ZM199.488 210.155C198.038 211.352 196.558 212.511 195.049 213.633C196.558 212.511 198.038 211.352 199.488 210.155V210.155ZM110.547 234.794C112.392 235.092 114.243 235.344 116.1 235.55C114.243 235.344 112.392 235.092 110.547 234.794V234.794ZM190.551 216.889C188.989 217.934 187.401 218.939 185.789 219.904C187.401 218.939 188.989 217.934 190.551 216.889V216.889ZM121.667 235.959C123.527 236.072 125.39 236.139 127.253 236.159C125.39 236.139 123.527 236.072 121.667 235.959V235.959ZM180.993 222.691C179.336 223.575 177.658 224.416 175.959 225.215C177.658 224.416 179.336 223.575 180.993 222.691V222.691ZM132.869 236.011C134.725 235.937 136.578 235.816 138.428 235.65C136.578 235.816 134.725 235.937 132.869 236.011V236.011ZM170.884 227.519C169.156 228.229 167.409 228.896 165.647 229.519C167.409 228.896 169.156 228.229 170.884 227.519V227.519ZM143.991 234.943C145.838 234.684 147.677 234.379 149.508 234.027C147.677 234.379 145.838 234.684 143.991 234.943V234.943ZM160.362 231.307C158.569 231.841 156.763 232.331 154.946 232.775C156.763 232.331 158.569 231.841 160.362 231.307V231.307Z" fill="#FAF8F6"/>
<path d="M127.752 84.2478C149.843 84.2478 167.752 102.156 167.752 124.248C167.752 146.339 149.843 164.248 127.752 164.248C105.661 164.248 87.752 146.339 87.752 124.248C87.752 102.156 105.661 84.2478 127.752 84.2478Z" fill="#AEA795"/>
<path d="M127.752 160.248C147.634 160.248 163.752 144.13 163.752 124.248C163.752 104.366 147.634 88.2478 127.752 88.2478C107.87 88.2478 91.752 104.366 91.752 124.248C91.752 144.13 107.87 160.248 127.752 160.248Z" fill="#FAF8F6"/>
<path d="M127.752 138.248C135.484 138.248 141.752 131.98 141.752 124.248C141.752 116.516 135.484 110.248 127.752 110.248C120.02 110.248 113.752 116.516 113.752 124.248C113.752 131.98 120.02 138.248 127.752 138.248Z" fill="#4D4D4D"/>
<path opacity="0.3" d="M127.752 12.248C98.0478 12.248 69.5601 24.048 48.5561 45.052C27.552 66.0561 15.752 94.5438 15.752 124.248C15.7636 124.638 15.7773 125.028 15.793 125.418C16.0121 95.8649 27.903 67.5962 48.8746 46.7725C69.8461 25.9488 98.1981 14.258 127.752 14.248C157.248 14.2572 185.549 25.9012 206.511 46.6518C227.473 67.4023 239.403 95.5842 239.711 125.078C239.726 124.801 239.739 124.525 239.752 124.248C239.752 94.5438 227.952 66.0561 206.948 45.052C185.944 24.048 157.456 12.248 127.752 12.248H127.752Z" fill="white"/>
<path opacity="0.2" d="M127.752 236.248C113.044 236.248 98.4799 233.351 84.8915 227.723C71.303 222.094 58.9562 213.844 48.5561 203.444C38.1559 193.044 29.906 180.697 24.2775 167.109C18.649 153.52 15.752 138.956 15.752 124.248C15.7636 123.858 15.7773 123.468 15.793 123.078C16.0121 152.631 27.903 180.9 48.8746 201.724C69.8461 222.547 98.1981 234.238 127.752 234.248C157.248 234.239 185.549 222.595 206.511 201.844C227.473 181.094 239.403 152.912 239.711 123.418C239.726 123.695 239.739 123.971 239.752 124.248C239.752 138.956 236.855 153.52 231.227 167.109C225.598 180.697 217.348 193.044 206.948 203.444C196.548 213.844 184.201 222.094 170.613 227.723C157.024 233.351 142.46 236.248 127.752 236.248H127.752Z" fill="black"/>
<path opacity="0.2" d="M69.072 135.059C104.418 135.059 133.072 106.405 133.072 71.059C133.072 35.7127 104.418 7.05896 69.072 7.05896C33.7258 7.05896 5.07199 35.7127 5.07199 71.059C5.07199 106.405 33.7258 135.059 69.072 135.059Z" fill="black"/>
<path d="M69.072 133.059C104.418 133.059 133.072 104.405 133.072 69.059C133.072 33.7128 104.418 5.05899 69.072 5.05899C33.7258 5.05899 5.07199 33.7128 5.07199 69.059C5.07199 104.405 33.7258 133.059 69.072 133.059Z" fill="#FB7C38"/>
<path d="M78.27 31.0043C53.73 41.0043 39 64.4443 39 81.0043C39 97.3783 51.884 110.664 67.887 110.975C59.8902 110.815 53.448 104.188 53.448 96.0043C53.448 87.72 60.8111 76.0043 73.083 71.0043C73.083 88.5043 86.259 91.0343 82.9004 101.004C80.9961 106.658 76.3511 110.948 68.2984 110.994C68.3464 110.995 68.3999 111 68.4513 111C84.7173 111 94.0743 102.368 97.9033 91C104.62 71.059 78.2683 66 78.2683 31L78.27 31.0043Z" fill="white"/>
<defs>
<linearGradient id="paint0_linear" x1="79.752" y1="12.248" x2="175.752" y2="236.248" gradientUnits="userSpaceOnUse">
<stop stop-color="#CDCDCD"/>
<stop offset="1" stop-color="#D9D9D9"/>
</linearGradient>
</defs>
</svg>
